bernoullicharts/pow_x_4_5__mean.svg

<?xml version="1.0" encoding="utf-8" standalone="no"?>
<!DOCTYPE svg PUBLIC "-//W3C//DTD SVG 1.1//EN"
  "http://www.w3.org/Graphics/SVG/1.1/DTD/svg11.dtd">
<!-- Created with matplotlib (https://matplotlib.org/) -->
<svg height="345.6pt" version="1.1" viewBox="0 0 460.8 345.6" width="460.8pt" xmlns="http://www.w3.org/2000/svg" xmlns:xlink="http://www.w3.org/1999/xlink">
 <defs>
  <style type="text/css">
*{stroke-linecap:butt;stroke-linejoin:round;}
  </style>
 </defs>
 <g id="figure_1">
  <g id="patch_1">
   <path d="M 0 345.6 
L 460.8 345.6 
L 460.8 0 
L 0 0 
z
" style="fill:#ffffff;"/>
  </g>
  <g id="axes_1">
   <g id="patch_2">
    <path d="M 57.6 307.584 
L 414.72 307.584 
L 414.72 41.472 
L 57.6 41.472 
z
" style="fill:#ffffff;"/>
   </g>
   <g id="matplotlib.axis_1">
    <g id="xtick_1">
     <g id="line2d_1">
      <defs>
       <path d="M 0 0 
L 0 3.5 
" id="m0fd96e9944" style="stroke:#000000;stroke-width:0.8;"/>
      </defs>
      <g>
       <use style="stroke:#000000;stroke-width:0.8;" x="73.800255" xlink:href="#m0fd96e9944" y="307.584"/>
      </g>
     </g>
     <g id="text_1">
      <text style="font-family:DejaVu Sans;font-size:10px;font-style:normal;font-weight:normal;text-anchor:middle;" transform="rotate(-0, 73.800255, 322.182437)" x="73.800255" y="322.182437">0.0</text>
     </g>
    </g>
    <g id="xtick_2">
     <g id="line2d_2">
      <g>
       <use style="stroke:#000000;stroke-width:0.8;" x="138.744153" xlink:href="#m0fd96e9944" y="307.584"/>
      </g>
     </g>
     <g id="text_2">
      <text style="font-family:DejaVu Sans;font-size:10px;font-style:normal;font-weight:normal;text-anchor:middle;" transform="rotate(-0, 138.744153, 322.182437)" x="138.744153" y="322.182437">0.2</text>
     </g>
    </g>
    <g id="xtick_3">
     <g id="line2d_3">
      <g>
       <use style="stroke:#000000;stroke-width:0.8;" x="203.688051" xlink:href="#m0fd96e9944" y="307.584"/>
      </g>
     </g>
     <g id="text_3">
      <text style="font-family:DejaVu Sans;font-size:10px;font-style:normal;font-weight:normal;text-anchor:middle;" transform="rotate(-0, 203.688051, 322.182437)" x="203.688051" y="322.182437">0.4</text>
     </g>
    </g>
    <g id="xtick_4">
     <g id="line2d_4">
      <g>
       <use style="stroke:#000000;stroke-width:0.8;" x="268.631949" xlink:href="#m0fd96e9944" y="307.584"/>
      </g>
     </g>
     <g id="text_4">
      <text style="font-family:DejaVu Sans;font-size:10px;font-style:normal;font-weight:normal;text-anchor:middle;" transform="rotate(-0, 268.631949, 322.182437)" x="268.631949" y="322.182437">0.6</text>
     </g>
    </g>
    <g id="xtick_5">
     <g id="line2d_5">
      <g>
       <use style="stroke:#000000;stroke-width:0.8;" x="333.575847" xlink:href="#m0fd96e9944" y="307.584"/>
      </g>
     </g>
     <g id="text_5">
      <text style="font-family:DejaVu Sans;font-size:10px;font-style:normal;font-weight:normal;text-anchor:middle;" transform="rotate(-0, 333.575847, 322.182437)" x="333.575847" y="322.182437">0.8</text>
     </g>
    </g>
    <g id="xtick_6">
     <g id="line2d_6">
      <g>
       <use style="stroke:#000000;stroke-width:0.8;" x="398.519745" xlink:href="#m0fd96e9944" y="307.584"/>
      </g>
     </g>
     <g id="text_6">
      <text style="font-family:DejaVu Sans;font-size:10px;font-style:normal;font-weight:normal;text-anchor:middle;" transform="rotate(-0, 398.519745, 322.182437)" x="398.519745" y="322.182437">1.0</text>
     </g>
    </g>
    <g id="text_7">
     <text style="font-family:DejaVu Sans;font-size:10px;font-style:normal;font-weight:normal;text-anchor:middle;" transform="rotate(-0, 236.16, 335.860562)" x="236.16" y="335.860562">Input Coin's Heads Probability (λ)</text>
    </g>
   </g>
   <g id="matplotlib.axis_2">
    <g id="ytick_1">
     <g id="line2d_7">
      <defs>
       <path d="M 0 0 
L -3.5 0 
" id="m93e9f48ae9" style="stroke:#000000;stroke-width:0.8;"/>
      </defs>
      <g>
       <use style="stroke:#000000;stroke-width:0.8;" x="57.6" xlink:href="#m93e9f48ae9" y="295.640738"/>
      </g>
     </g>
     <g id="text_8">
      <text style="font-family:DejaVu Sans;font-size:10px;font-style:normal;font-weight:normal;text-anchor:end;" transform="rotate(-0, 50.6, 299.439956)" x="50.6" y="299.439956">0.0</text>
     </g>
    </g>
    <g id="ytick_2">
     <g id="line2d_8">
      <g>
       <use style="stroke:#000000;stroke-width:0.8;" x="57.6" xlink:href="#m93e9f48ae9" y="247.22619"/>
      </g>
     </g>
     <g id="text_9">
      <text style="font-family:DejaVu Sans;font-size:10px;font-style:normal;font-weight:normal;text-anchor:end;" transform="rotate(-0, 50.6, 251.025409)" x="50.6" y="251.025409">0.2</text>
     </g>
    </g>
    <g id="ytick_3">
     <g id="line2d_9">
      <g>
       <use style="stroke:#000000;stroke-width:0.8;" x="57.6" xlink:href="#m93e9f48ae9" y="198.811643"/>
      </g>
     </g>
     <g id="text_10">
      <text style="font-family:DejaVu Sans;font-size:10px;font-style:normal;font-weight:normal;text-anchor:end;" transform="rotate(-0, 50.6, 202.610861)" x="50.6" y="202.610861">0.4</text>
     </g>
    </g>
    <g id="ytick_4">
     <g id="line2d_10">
      <g>
       <use style="stroke:#000000;stroke-width:0.8;" x="57.6" xlink:href="#m93e9f48ae9" y="150.397095"/>
      </g>
     </g>
     <g id="text_11">
      <text style="font-family:DejaVu Sans;font-size:10px;font-style:normal;font-weight:normal;text-anchor:end;" transform="rotate(-0, 50.6, 154.196314)" x="50.6" y="154.196314">0.6</text>
     </g>
    </g>
    <g id="ytick_5">
     <g id="line2d_11">
      <g>
       <use style="stroke:#000000;stroke-width:0.8;" x="57.6" xlink:href="#m93e9f48ae9" y="101.982548"/>
      </g>
     </g>
     <g id="text_12">
      <text style="font-family:DejaVu Sans;font-size:10px;font-style:normal;font-weight:normal;text-anchor:end;" transform="rotate(-0, 50.6, 105.781766)" x="50.6" y="105.781766">0.8</text>
     </g>
    </g>
    <g id="ytick_6">
     <g id="line2d_12">
      <g>
       <use style="stroke:#000000;stroke-width:0.8;" x="57.6" xlink:href="#m93e9f48ae9" y="53.568"/>
      </g>
     </g>
     <g id="text_13">
      <text style="font-family:DejaVu Sans;font-size:10px;font-style:normal;font-weight:normal;text-anchor:end;" transform="rotate(-0, 50.6, 57.367219)" x="50.6" y="57.367219">1.0</text>
     </g>
    </g>
    <g id="text_14">
     <text style="font-family:DejaVu Sans;font-size:10px;font-style:normal;font-weight:normal;text-anchor:middle;" transform="rotate(-90, 28.617187, 174.528)" x="28.617187" y="174.528">Simulated Mean / Function Value</text>
    </g>
   </g>
   <g id="line2d_13">
    <path clip-path="url(#p200dae1e8c)" d="M 73.832727 295.488 
L 77.112066 289.463538 
L 80.391405 284.927811 
L 83.670744 280.842496 
L 86.950083 277.025215 
L 90.229421 273.395778 
L 93.50876 269.909413 
L 96.788099 266.537736 
L 100.067438 263.261248 
L 103.346777 260.065789 
L 106.626116 256.940637 
L 109.905455 253.87742 
L 113.184793 250.869428 
L 116.464132 247.911175 
L 119.743471 244.998101 
L 123.02281 242.126355 
L 126.302149 239.292651 
L 129.581488 236.494152 
L 132.860826 233.728384 
L 136.140165 230.993178 
L 139.419504 228.286612 
L 142.698843 225.606976 
L 145.978182 222.952738 
L 149.257521 220.322518 
L 152.53686 217.715068 
L 155.816198 215.129255 
L 159.095537 212.564044 
L 162.374876 210.018487 
L 165.654215 207.491715 
L 168.933554 204.982924 
L 172.212893 202.491374 
L 175.492231 200.016376 
L 178.77157 197.557293 
L 182.050909 195.11353 
L 185.330248 192.68453 
L 188.609587 190.269775 
L 191.888926 187.868777 
L 195.168264 185.481079 
L 198.447603 183.106252 
L 201.726942 180.743888 
L 205.006281 178.393607 
L 208.28562 176.055047 
L 211.564959 173.727864 
L 214.844298 171.411736 
L 218.123636 169.106354 
L 221.402975 166.811426 
L 224.682314 164.526674 
L 227.961653 162.251832 
L 231.240992 159.986649 
L 234.520331 157.730883 
L 237.799669 155.484305 
L 241.079008 153.246694 
L 244.358347 151.017839 
L 247.637686 148.79754 
L 250.917025 146.585602 
L 254.196364 144.381841 
L 257.475702 142.186077 
L 260.755041 139.998141 
L 264.03438 137.817867 
L 267.313719 135.645098 
L 270.593058 133.479681 
L 273.872397 131.321469 
L 277.151736 129.17032 
L 280.431074 127.026099 
L 283.710413 124.888674 
L 286.989752 122.757916 
L 290.269091 120.633705 
L 293.54843 118.515919 
L 296.827769 116.404445 
L 300.107107 114.299172 
L 303.386446 112.199992 
L 306.665785 110.1068 
L 309.945124 108.019495 
L 313.224463 105.93798 
L 316.503802 103.862159 
L 319.78314 101.791941 
L 323.062479 99.727235 
L 326.341818 97.667955 
L 329.621157 95.614016 
L 332.900496 93.565336 
L 336.179835 91.521836 
L 339.459174 89.483438 
L 342.738512 87.450066 
L 346.017851 85.421647 
L 349.29719 83.39811 
L 352.576529 81.379384 
L 355.855868 79.365402 
L 359.135207 77.356098 
L 362.414545 75.351408 
L 365.693884 73.351268 
L 368.973223 71.355617 
L 372.252562 69.364396 
L 375.531901 67.377545 
L 378.81124 65.395009 
L 382.090579 63.416732 
L 385.369917 61.442659 
L 388.649256 59.472737 
L 391.928595 57.506914 
L 395.207934 55.545141 
L 398.487273 53.587366 
" style="fill:none;stroke:#1f77b4;stroke-linecap:square;stroke-width:1.5;"/>
   </g>
   <g id="line2d_14">
    <path clip-path="url(#p200dae1e8c)" d="M 73.832727 295.156592 
L 77.112066 288.862701 
L 80.391405 285.957828 
L 83.670744 280.632228 
L 86.950083 277.727355 
L 90.229421 271.917609 
L 93.50876 264.655427 
L 96.788099 269.012736 
L 100.067438 263.687136 
L 103.346777 262.2347 
L 106.626116 246.257899 
L 109.905455 249.646917 
L 113.184793 250.615208 
L 116.464132 247.710336 
L 119.743471 240.932299 
L 123.02281 242.868881 
L 126.302149 243.353026 
L 129.581488 236.57499 
L 132.860826 230.765244 
L 136.140165 238.511572 
L 139.419504 230.765244 
L 142.698843 221.082334 
L 145.978182 221.082334 
L 149.257521 224.955498 
L 152.53686 214.304298 
L 155.816198 214.304298 
L 159.095537 209.462843 
L 162.374876 202.200661 
L 165.654215 208.978698 
L 168.933554 209.462843 
L 172.212893 201.716515 
L 175.492231 196.390915 
L 178.77157 197.843352 
L 182.050909 197.359206 
L 185.330248 197.843352 
L 188.609587 185.255569 
L 191.888926 186.708006 
L 195.168264 185.255569 
L 198.447603 183.803133 
L 201.726942 169.762914 
L 205.006281 179.929969 
L 208.28562 171.699496 
L 211.564959 179.445824 
L 214.844298 164.437314 
L 218.123636 173.636078 
L 221.402975 172.667787 
L 224.682314 158.143423 
L 227.961653 168.310478 
L 231.240992 168.310478 
L 234.520331 162.016586 
L 237.799669 152.333677 
L 241.079008 151.365386 
L 244.358347 147.008077 
L 247.637686 147.976368 
L 250.917025 141.682476 
L 254.196364 147.008077 
L 257.475702 134.420294 
L 260.755041 131.999567 
L 264.03438 143.134913 
L 267.313719 136.356876 
L 270.593058 147.492222 
L 273.872397 134.420294 
L 277.151736 132.483712 
L 280.431074 124.253239 
L 283.710413 124.253239 
L 286.989752 121.832512 
L 290.269091 117.475203 
L 293.54843 115.054475 
L 296.827769 116.991057 
L 300.107107 116.022766 
L 303.386446 110.213021 
L 306.665785 103.919129 
L 309.945124 107.792293 
L 313.224463 110.213021 
L 316.503802 98.109384 
L 319.78314 99.077675 
L 323.062479 103.434984 
L 326.341818 95.688656 
L 329.621157 98.109384 
L 332.900496 97.625238 
L 336.179835 93.752074 
L 339.459174 89.394765 
L 342.738512 84.069165 
L 346.017851 83.585019 
L 349.29719 81.648438 
L 352.576529 75.838692 
L 355.855868 83.585019 
L 359.135207 77.291128 
L 362.414545 76.322837 
L 365.693884 73.90211 
L 368.973223 68.57651 
L 372.252562 66.639928 
L 375.531901 68.57651 
L 378.81124 64.2192 
L 382.090579 60.346037 
L 385.369917 62.282619 
L 388.649256 56.957018 
L 391.928595 57.441164 
L 395.207934 55.988727 
L 398.487273 53.568 
" style="fill:none;stroke:#ff7f0e;stroke-linecap:square;stroke-width:1.5;"/>
   </g>
   <g id="patch_3">
    <path d="M 57.6 307.584 
L 57.6 41.472 
" style="fill:none;stroke:#000000;stroke-linecap:square;stroke-linejoin:miter;stroke-width:0.8;"/>
   </g>
   <g id="patch_4">
    <path d="M 414.72 307.584 
L 414.72 41.472 
" style="fill:none;stroke:#000000;stroke-linecap:square;stroke-linejoin:miter;stroke-width:0.8;"/>
   </g>
   <g id="patch_5">
    <path d="M 57.6 307.584 
L 414.72 307.584 
" style="fill:none;stroke:#000000;stroke-linecap:square;stroke-linejoin:miter;stroke-width:0.8;"/>
   </g>
   <g id="patch_6">
    <path d="M 57.6 41.472 
L 414.72 41.472 
" style="fill:none;stroke:#000000;stroke-linecap:square;stroke-linejoin:miter;stroke-width:0.8;"/>
   </g>
   <g id="text_15">
    <text style="font-family:DejaVu Sans;font-size:12px;font-style:normal;font-weight:normal;" transform="translate(112.047188 22.034625)">Simulated Mean for pow(x,4/5) Algorithm</text>
    <text style="font-family:DejaVu Sans;font-size:12px;font-style:normal;font-weight:normal;" transform="translate(132.609375 35.472)">(Wasserstein Distances in Legend)</text>
   </g>
   <g id="legend_1">
    <g id="patch_7">
     <path d="M 64.6 78.82825 
L 242.85 78.82825 
Q 244.85 78.82825 244.85 76.82825 
L 244.85 48.472 
Q 244.85 46.472 242.85 46.472 
L 64.6 46.472 
Q 62.6 46.472 62.6 48.472 
L 62.6 76.82825 
Q 62.6 78.82825 64.6 78.82825 
z
" style="fill:#ffffff;opacity:0.8;stroke:#cccccc;stroke-linejoin:miter;"/>
    </g>
    <g id="line2d_15">
     <path d="M 66.6 54.570437 
L 86.6 54.570437 
" style="fill:none;stroke:#1f77b4;stroke-linecap:square;stroke-width:1.5;"/>
    </g>
    <g id="line2d_16"/>
    <g id="text_16">
     <text style="font-family:DejaVu Sans;font-size:10px;font-style:normal;font-weight:normal;text-anchor:start;" transform="rotate(-0, 94.6, 58.070437)" x="94.6" y="58.070437">pow(x,4/5)</text>
    </g>
    <g id="line2d_17">
     <path d="M 66.6 69.248562 
L 86.6 69.248562 
" style="fill:none;stroke:#ff7f0e;stroke-linecap:square;stroke-width:1.5;"/>
    </g>
    <g id="line2d_18"/>
    <g id="text_17">
     <text style="font-family:DejaVu Sans;font-size:10px;font-style:normal;font-weight:normal;text-anchor:start;" transform="rotate(-0, 94.6, 72.748562)" x="94.6" y="72.748562">Simul. Mean (WD=0.006363)</text>
    </g>
   </g>
  </g>
 </g>
 <defs>
  <clipPath id="p200dae1e8c">
   <rect height="266.112" width="357.12" x="57.6" y="41.472"/>
  </clipPath>
 </defs>
</svg>

<svg height="460.8" viewBox="0 0 460.8 345.6" width="614.4" xmlns="http://www.w3.org/2000/svg" xmlns:xlink="http://www.w3.org/1999/xlink"><defs><style>*{stroke-linecap:butt;stroke-linejoin:round}</style></defs><g id="figure_1"><path d="M0 345.6h460.8V0H0z" fill="#fff" id="patch_1"/><g id="axes_1"><path d="M57.6 307.584h357.12V41.472H57.6z" fill="#fff" id="patch_2"/><g id="matplotlib.axis_1"><g id="xtick_1"><g id="line2d_1"><defs><path d="M0 0v3.5" id="m0fd96e9944" stroke="#000" stroke-width=".8"/></defs><use x="73.8" xlink:href="#m0fd96e9944" y="307.584" stroke="#000" stroke-width=".8"/></g><text x="73.8" y="322.182" font-family="DejaVu Sans" font-size="10" font-weight="400" text-anchor="middle" id="text_1">0.0</text></g><g id="xtick_2"><use x="138.744" xlink:href="#m0fd96e9944" y="307.584" stroke="#000" stroke-width=".8" id="line2d_2"/><text x="138.744" y="322.182" font-family="DejaVu Sans" font-size="10" font-weight="400" text-anchor="middle" id="text_2">0.2</text></g><g id="xtick_3"><use x="203.688" xlink:href="#m0fd96e9944" y="307.584" stroke="#000" stroke-width=".8" id="line2d_3"/><text x="203.688" y="322.182" font-family="DejaVu Sans" font-size="10" font-weight="400" text-anchor="middle" id="text_3">0.4</text></g><g id="xtick_4"><use x="268.632" xlink:href="#m0fd96e9944" y="307.584" stroke="#000" stroke-width=".8" id="line2d_4"/><text x="268.632" y="322.182" font-family="DejaVu Sans" font-size="10" font-weight="400" text-anchor="middle" id="text_4">0.6</text></g><g id="xtick_5"><use x="333.576" xlink:href="#m0fd96e9944" y="307.584" stroke="#000" stroke-width=".8" id="line2d_5"/><text x="333.576" y="322.182" font-family="DejaVu Sans" font-size="10" font-weight="400" text-anchor="middle" id="text_5">0.8</text></g><g id="xtick_6"><use x="398.52" xlink:href="#m0fd96e9944" y="307.584" stroke="#000" stroke-width=".8" id="line2d_6"/><text x="398.52" y="322.182" font-family="DejaVu Sans" font-size="10" font-weight="400" text-anchor="middle" id="text_6">1.0</text></g><text x="236.16" y="335.861" font-family="DejaVu Sans" font-size="10" font-weight="400" text-anchor="middle" id="text_7">Input Coin&apos;s Heads Probability (λ)</text></g><g id="matplotlib.axis_2"><g id="ytick_1"><g id="line2d_7"><defs><path d="M0 0h-3.5" id="m93e9f48ae9" stroke="#000" stroke-width=".8"/></defs><use x="57.6" xlink:href="#m93e9f48ae9" y="295.641" stroke="#000" stroke-width=".8"/></g><text x="50.6" y="299.44" font-family="DejaVu Sans" font-size="10" font-weight="400" text-anchor="end" id="text_8">0.0</text></g><g id="ytick_2"><use x="57.6" xlink:href="#m93e9f48ae9" y="247.226" stroke="#000" stroke-width=".8" id="line2d_8"/><text x="50.6" y="251.025" font-family="DejaVu Sans" font-size="10" font-weight="400" text-anchor="end" id="text_9">0.2</text></g><g id="ytick_3"><use x="57.6" xlink:href="#m93e9f48ae9" y="198.812" stroke="#000" stroke-width=".8" id="line2d_9"/><text x="50.6" y="202.611" font-family="DejaVu Sans" font-size="10" font-weight="400" text-anchor="end" id="text_10">0.4</text></g><g id="ytick_4"><use x="57.6" xlink:href="#m93e9f48ae9" y="150.397" stroke="#000" stroke-width=".8" id="line2d_10"/><text x="50.6" y="154.196" font-family="DejaVu Sans" font-size="10" font-weight="400" text-anchor="end" id="text_11">0.6</text></g><g id="ytick_5"><use x="57.6" xlink:href="#m93e9f48ae9" y="101.983" stroke="#000" stroke-width=".8" id="line2d_11"/><text x="50.6" y="105.782" font-family="DejaVu Sans" font-size="10" font-weight="400" text-anchor="end" id="text_12">0.8</text></g><g id="ytick_6"><use x="57.6" xlink:href="#m93e9f48ae9" y="53.568" stroke="#000" stroke-width=".8" id="line2d_12"/><text x="50.6" y="57.367" font-family="DejaVu Sans" font-size="10" font-weight="400" text-anchor="end" id="text_13">1.0</text></g><text transform="rotate(-90 28.617 174.528)" x="28.617" y="174.528" font-family="DejaVu Sans" font-size="10" font-weight="400" text-anchor="middle" id="text_14">Simulated Mean / Function Value</text></g><path clip-path="url(#p200dae1e8c)" d="M73.833 295.488l3.28-6.024 3.278-4.536 3.28-4.086 3.28-3.817 3.278-3.63 3.28-3.486 3.28-3.371 3.278-3.277 3.28-3.195 3.28-3.125 3.278-3.064 3.28-3.008 3.28-2.958 3.278-2.913 3.28-2.872 3.28-2.833 3.278-2.799 3.28-2.766 3.28-2.735 3.279-2.706 3.279-2.68 3.28-2.654 3.279-2.63 3.279-2.608 3.28-2.586 3.279-2.565 3.279-2.546 3.28-2.526 3.279-2.51 3.279-2.49 3.28-2.476 3.279-2.459 3.279-2.443 3.28-2.43 3.279-2.414 3.279-2.401 3.28-2.388 3.279-2.375 3.279-2.362 3.28-2.35 3.279-2.339 3.279-2.327 3.28-2.316 3.279-2.306 3.279-2.295 3.28-2.284 3.279-2.275 3.279-2.265 3.28-2.256 3.279-2.247 3.279-2.237 3.28-2.23 3.279-2.22 3.279-2.211 3.28-2.204 3.279-2.196 3.279-2.188 3.28-2.18 3.279-2.173 3.28-2.165 3.278-2.159 3.28-2.15 3.28-2.145 3.278-2.137 3.28-2.131 3.28-2.124 3.278-2.118 3.28-2.112 3.28-2.105 3.278-2.099 3.28-2.093 3.28-2.088 3.278-2.081 3.28-2.076 3.28-2.07 3.278-2.065 3.28-2.059 3.28-2.054 3.278-2.049 3.28-2.043 3.28-2.039 3.279-2.033 3.279-2.028 3.28-2.024 3.279-2.019 3.279-2.014 3.28-2.009 3.279-2.005 3.279-2 3.28-1.995 3.279-1.992 3.279-1.986 3.28-1.983 3.279-1.978 3.279-1.974 3.28-1.97 3.279-1.966 3.279-1.962 3.28-1.958" fill="none" stroke="#1f77b4" stroke-linecap="square" stroke-width="1.5" id="line2d_13"/><path clip-path="url(#p200dae1e8c)" d="M73.833 295.157l3.28-6.294 3.278-2.905 3.28-5.326 3.28-2.905 3.278-5.81 3.28-7.262 3.28 4.358 3.278-5.326 3.28-1.452 3.28-15.977 3.278 3.389 3.28.968 3.28-2.905 3.278-6.778 3.28 1.937 3.28.484 3.278-6.778 3.28-5.81 3.28 7.747 3.279-7.747 3.279-9.683h3.28l3.279 3.873 3.279-10.65h3.28l3.279-4.842 3.279-7.262 3.28 6.778 3.279.484 3.279-7.746 3.28-5.326 3.279 1.452 3.279-.484 3.28.484 3.279-12.587 3.279 1.452 3.28-1.452 3.279-1.453 3.279-14.04 3.28 10.167 3.279-8.23 3.279 7.746 3.28-15.009 3.279 9.2 3.279-.97 3.28-14.524 3.279 10.167h3.279l3.28-6.293 3.279-9.683 3.279-.969 3.28-4.357 3.279.968 3.279-6.294 3.28 5.326 3.279-12.588 3.279-2.42 3.28 11.135 3.279-6.778 3.28 11.135 3.278-13.072 3.28-1.936 3.28-8.23h3.278l3.28-2.421 3.28-4.358 3.278-2.42 3.28 1.936 3.28-.968 3.278-5.81 3.28-6.294 3.28 3.873 3.278 2.421 3.28-12.104 3.28.969 3.278 4.357 3.28-7.746 3.28 2.42 3.278-.484 3.28-3.873 3.28-4.357 3.279-5.326 3.279-.484 3.28-1.937 3.279-5.81 3.279 7.747 3.28-6.294 3.279-.968 3.279-2.42 3.28-5.326 3.279-1.937 3.279 1.937 3.28-4.358 3.279-3.873 3.279 1.937 3.28-5.326 3.279.484 3.279-1.452 3.28-2.421" fill="none" stroke="#ff7f0e" stroke-linecap="square" stroke-width="1.5" id="line2d_14"/><path d="M57.6 307.584V41.472" fill="none" stroke="#000" stroke-linecap="square" stroke-width=".8" id="patch_3"/><path d="M414.72 307.584V41.472" fill="none" stroke="#000" stroke-linecap="square" stroke-width=".8" id="patch_4"/><path d="M57.6 307.584h357.12" fill="none" stroke="#000" stroke-linecap="square" stroke-width=".8" id="patch_5"/><path d="M57.6 41.472h357.12" fill="none" stroke="#000" stroke-linecap="square" stroke-width=".8" id="patch_6"/><g id="text_15" font-family="DejaVu Sans" font-size="12" font-weight="400"><text transform="translate(112.047 22.035)">Simulated Mean for pow(x,4/5) Algorithm</text><text transform="translate(132.61 35.472)">(Wasserstein Distances in Legend)</text></g><g id="legend_1"><path d="M64.6 78.828h178.25q2 0 2-2V48.472q0-2-2-2H64.6q-2 0-2 2v28.356q0 2 2 2z" fill="#fff" opacity=".8" stroke="#ccc" id="patch_7"/><path d="M66.6 54.57h20" fill="none" stroke="#1f77b4" stroke-linecap="square" stroke-width="1.5" id="line2d_15"/><text x="94.6" y="58.07" font-family="DejaVu Sans" font-size="10" font-weight="400" id="text_16">pow(x,4/5)</text><path d="M66.6 69.249h20" fill="none" stroke="#ff7f0e" stroke-linecap="square" stroke-width="1.5" id="line2d_17"/><text x="94.6" y="72.749" font-family="DejaVu Sans" font-size="10" font-weight="400" id="text_17">Simul. Mean (WD=0.006363)</text></g></g></g><defs><clipPath id="p200dae1e8c"><path d="M57.6 41.472h357.12v266.112H57.6z"/></clipPath></defs></svg>
